X:2907
T:Chattering Magpie
S:Trad, arr. Paddy O'Brien 
R:reel
E:9
I:speed 350
M:C|
K:G
BGAF DGGA|~B2 ge fdcA|BGAF DGGE|FGAB ~c2dc|\
BGAF DGGA|~B2 ge fdcA|BGAF DGGE|FGAB ~c2Bc||\
dggf ~g2bg|dg~g2fgaf|dggf ~g2 ga|bgag fdcA|\
dggf ~g2 bg|dg~g2 fgaf|dggf ~g2 ga|bgag fdcA||**


